X: 1
T: Devil's Hornpipe
O: Roy Wooliver, Gene Goforth, John Hartford
R: hornpipe, clog, reel
%D 1922
N: variant of Speed the Plo[w,ugh], Blanchard's Hornpipe
Z: 2020 John Chambers <jc:trillian.mit.edu>
S: https://www.facebook.com/groups/Fiddletuneoftheday/ 2020-11-05
S: https://www.facebook.com/groups/Fiddletuneoftheday/photos/
M: C|
L: 1/8
K: A
A,2- |:\
"A"A,B,CE A2A2 | cBcd e2ec |\
[1,3 "D"d2fd "A"c2ec | "E"BABc B2 :|\
[2,4 "D"dfed "A"cdec | "E"BABc "A"A2 :|
|: eg |\
"A"a2ag aecA | aga2 ecBA | "D"dfed "A"cBAc |\
[1,3 "E"BABc [e2B2] :|[2,4 "E"BABc "A"A2 :|
